X:1414
L:1/8
Q:1/4=120
M:2/2
K:D
"^Fast" (ef- |S f)gfe d2 d2 | ABAF D2 D2 | CDEF G2 GA | BAGB A2 AA | (fg)fe d2 d2 | ABAF D2 D2 | 
 CDEF GABc |1 d2{e} d2- d2 :|2 d2 (3edc d2 ||[K:A] e2- | efec efec | e2 ee e2 dc | BABc B2 cB | 
 ABcd e2 (ce- | e)fec efec | e2 ee e2 dc | BABc B2 cB |[M:3/2] ABAg a6 :|2[M:3/2] ABAg a6 a2S ||

